X:90
T:Merry Jack THO1.090
M:C|
L:1/8
Z:vmp. Peter Dunk 2012.from a transcription by Fynn Titford-Mock 2006
B:Thompson's Compleat Collection of 200 Favourite Country Dances Vol.I,1758
Q:1/2=70
K:D
A/G/|FAdf ecBA|afed cecA|f2 ed cafa|ce E^G A3:|
|:e|ecBA fgaf|gfed cBAG|FAdf GBeg|fe/d/ Ac d2 D:|

